icons/ban-outline.svg

<svg width="24" height="24" viewBox="0 0 24 24" fill="none" xmlns="http://www.w3.org/2000/svg">
<path d="M20 12C19.9999 13.775 19.4057 15.499 18.312 16.897L7.103 5.688C8.50127 4.59471 10.225 4.00052 12 4C16.411 4 20 7.589 20 12ZM4 12C4 10.154 4.634 8.458 5.688 7.103L16.897 18.312C15.4987 19.4053 13.775 19.9995 12 20C7.589 20 4 16.411 4 12ZM2 12C2 17.514 6.486 22 12 22C17.514 22 22 17.514 22 12C22 6.486 17.514 2 12 2C6.486 2 2 6.486 2 12Z" fill="#3A3A47"/>
</svg>

<svg xmlns="http://www.w3.org/2000/svg" width="24" height="24" viewBox="0 0 24 24">
    <path fill="#3A3A47" fill-rule="evenodd" d="M20 12a7.948 7.948 0 0 1-1.688 4.897L7.103 5.688A7.954 7.954 0 0 1 12 4c4.411 0 8 3.589 8 8M4 12c0-1.846.634-3.542 1.688-4.897l11.209 11.209A7.954 7.954 0 0 1 12 20c-4.411 0-8-3.589-8-8m-2 0c0 5.514 4.486 10 10 10s10-4.486 10-10S17.514 2 12 2 2 6.486 2 12"/>
</svg>
